src/assets/icons/open_book_icon.svg

<svg fill="none" height="24" viewBox="0 0 24 24" width="24" xmlns="http://www.w3.org/2000/svg"><path d="m8.79297 4.00195c.8476-.01816 1.73613.08307 2.47163.43848.337.16286.6407.37906.8887.65332.3-.28579.7028-.55269 1.251-.73828 1.2883-.43589 3.2472-.37904 6.3252.63281.3074.10132.5156.38914.5156.71289v.10254c1.0755.32261 1.8593 1.31945 1.8594 2.5v9.16309c-.0001 1.5187-1.2313 2.75-2.75 2.75h-14.6045c-1.51856-.0002-2.7499-1.2314-2.75-2.75v-9.16309c.00005-1.18073.78448-2.17754 1.86035-2.5v-.10254c.00003-.28804.16628-.55077.42578-.67578.96175-.46312 2.81112-.98699 4.50684-1.02344zm-4.93262 3.48438c-.2211.20295-.36032.49368-.36035.81738v9.16309c.0001.6901.55987 1.2498 1.25 1.25h14.6045c.6903 0 1.2499-.5597 1.25-1.25v-9.16309c0-.32328-.1389-.61349-.3594-.81641v9.8145c-.0001.2705-.1462.5204-.3818.6533-.236.1328-.5263.1276-.7578-.0127-1.1407-.692-3.6457-1.1553-6.6963.4912-.227.1223-.5012.1191-.7256-.0078-1.0479-.5939-2.48599-.9832-3.81153-1.0781-.6586-.0471-1.26273-.0197-1.75488.0781-.50478.1004-.82307.2604-.98828.418-.21699.2071-.53667.2652-.8125.1474-.27589-.118-.45595-.3894-.45606-.6894zm4.96485-1.98438c-1.24312.02672-2.60331.36609-3.46387.69532v9.87113c.15181-.0454.30745-.0824.46289-.1133.6557-.1304 1.39894-.1575 2.1543-.1035 1.09403.0782 2.27138.3349 3.32418.7461v-9.9434c-.0804-.41614-.3104-.6795-.6904-.86328-.4318-.20865-1.04985-.30486-1.7871-.28907zm9.9199.74707c-2.6368-.80421-4.0797-.73628-4.8594-.47265-.6694.22658-.9278.62544-1.083.96289v9.84964c2.3367-.9686 4.4332-.9273 5.9424-.4395z" fill="#000"/></svg>

<svg width="24" height="24" viewBox="0 0 24 24" fill="none" xmlns="http://www.w3.org/2000/svg">
<path d="M8.79297 4.00195C9.64057 3.98379 10.5291 4.08502 11.2646 4.44043C11.6016 4.60329 11.9053 4.81949 12.1533 5.09375C12.4533 4.80796 12.8561 4.54106 13.4043 4.35547C14.6926 3.91958 16.6515 3.97643 19.7295 4.98828C20.0369 5.0896 20.2451 5.37742 20.2451 5.70117V5.80371C21.3206 6.12632 22.1044 7.12316 22.1045 8.30371V17.4668C22.1044 18.9855 20.8732 20.2168 19.3545 20.2168H4.75C3.23144 20.2166 2.0001 18.9854 2 17.4668V8.30371C2.00005 7.12298 2.78448 6.12617 3.86035 5.80371V5.70117C3.86038 5.41313 4.02663 5.1504 4.28613 5.02539C5.24788 4.56227 7.09725 4.0384 8.79297 4.00195ZM3.86035 7.48633C3.63925 7.68928 3.50003 7.98001 3.5 8.30371V17.4668C3.5001 18.1569 4.05987 18.7166 4.75 18.7168H19.3545C20.0448 18.7168 20.6044 18.1571 20.6045 17.4668V8.30371C20.6045 7.98043 20.4656 7.69022 20.2451 7.4873V17.3018C20.245 17.5723 20.0989 17.8222 19.8633 17.9551C19.6273 18.0879 19.337 18.0827 19.1055 17.9424C17.9648 17.2504 15.4598 16.7871 12.4092 18.4336C12.1822 18.5559 11.908 18.5527 11.6836 18.4258C10.6357 17.8319 9.19761 17.4426 7.87207 17.3477C7.21347 17.3006 6.60934 17.328 6.11719 17.4258C5.61241 17.5262 5.29412 17.6862 5.12891 17.8438C4.91192 18.0509 4.59224 18.109 4.31641 17.9912C4.04052 17.8732 3.86046 17.6018 3.86035 17.3018V7.48633ZM8.8252 5.50195C7.58208 5.52867 6.22189 5.86804 5.36133 6.19727V16.0684C5.51314 16.023 5.66878 15.986 5.82422 15.9551C6.47992 15.8247 7.22316 15.7976 7.97852 15.8516C9.07255 15.9298 10.2499 16.1865 11.3027 16.5977V6.6543C11.2223 6.23816 10.9923 5.9748 10.6123 5.79102C10.1805 5.58237 9.56245 5.48616 8.8252 5.50195ZM18.7451 6.24902C16.1083 5.44481 14.6654 5.51274 13.8857 5.77637C13.2163 6.00295 12.9579 6.40181 12.8027 6.73926V16.5889C15.1394 15.6203 17.2359 15.6616 18.7451 16.1494V6.24902Z" fill="black"/>
</svg>
